icons/codepen-dark.svg

<svg width="256" height="256" viewBox="0 0 256 256" fill="none" xmlns="http://www.w3.org/2000/svg">
<rect width="256" height="256" rx="60" fill="#282828"/>
<path d="M229.015 88.5041L133.038 24.5191C129.762 22.5011 126.265 22.4861 122.962 24.5191L26.985 88.5041C24.525 90.1441 23 93.0751 23 96.0031V159.987C23 162.918 24.525 165.847 26.985 167.486L122.962 231.481C126.236 233.498 129.735 233.516 133.038 231.481L229.015 167.486C231.475 165.847 233 162.918 233 159.989V96.0041C233 93.0751 231.475 90.1441 229.015 88.5041ZM137.025 48.8931L207.687 96.0031L176.163 117.098L137.024 90.9631V48.8961L137.025 48.8931ZM118.976 48.8931V90.9641L79.834 117.097L48.311 96.0041L118.976 48.8931ZM41.047 112.877L63.664 127.995L41.047 143.114V112.877ZM118.976 207.098L48.311 159.987L79.834 138.894L118.976 165.027V207.098ZM128 149.323L96.126 127.995L128 106.667L159.874 127.995L128 149.323ZM137.024 207.098V165.027L176.163 138.894L207.687 159.987L137.025 207.098H137.024ZM214.954 143.114L192.336 127.995L214.954 112.879V143.114Z" fill="white"/>
</svg>

<svg xmlns="http://www.w3.org/2000/svg" width="256" height="256" fill="none"><rect width="256" height="256" fill="#282828" rx="60"/><path fill="#fff" d="M229.015 88.504 133.038 24.52c-3.276-2.018-6.773-2.033-10.076 0L26.985 88.504c-2.46 1.64-3.985 4.571-3.985 7.5v63.983c0 2.931 1.525 5.86 3.985 7.499l95.977 63.995c3.274 2.017 6.773 2.035 10.076 0l95.977-63.995c2.46-1.639 3.985-4.568 3.985-7.497V96.004c0-2.929-1.525-5.86-3.985-7.5m-91.99-39.61 70.662 47.11-31.524 21.094-39.139-26.135V48.896zm-18.049 0v42.07l-39.142 26.133-31.523-21.093zm-77.929 63.983 22.617 15.118-22.617 15.119zm77.929 94.221-70.665-47.111 31.523-21.093 39.142 26.133zM128 149.323l-31.874-21.328L128 106.667l31.874 21.328zm9.024 57.775v-42.071l39.139-26.133 31.524 21.093-70.662 47.111zm77.93-63.984-22.618-15.119 22.618-15.116z"/></svg>
